lib/icons/link.svg

<svg width="16" height="16" viewBox="0 0 16 16" fill="none" xmlns="http://www.w3.org/2000/svg">
<path fill-rule="evenodd" clip-rule="evenodd" d="M7.0498 9.70014C7.27387 9.86153 7.58635 9.81072 7.74774 9.58665C7.90913 9.36257 7.85831 9.0501 7.63424 8.88871C7.46557 8.76722 7.30588 8.62786 7.15783 8.47055C5.9156 7.15049 5.98697 5.08266 7.31815 3.84988L9.44307 1.88204C10.7765 0.647141 12.8679 0.718733 14.1123 2.04107C15.3545 3.36112 15.2832 5.42896 13.952 6.66173L11.8271 8.62958C11.6245 8.81721 11.6123 9.13356 11.7999 9.33616C11.9876 9.53877 12.3039 9.55091 12.5065 9.36328L14.6314 7.39544C16.3697 5.78563 16.4638 3.08066 14.8405 1.35575C13.2195 -0.366883 10.4996 -0.459354 8.7636 1.14833L6.63868 3.11618C4.90038 4.72598 4.80636 7.43095 6.42959 9.15586C6.62172 9.36003 6.82962 9.54156 7.0498 9.70014ZM8.94933 6.29987C8.72526 6.13848 8.41278 6.1893 8.25139 6.41337C8.09 6.63744 8.14081 6.94992 8.36489 7.11131C8.53356 7.2328 8.69325 7.37215 8.84129 7.52947C10.0835 8.84952 10.0122 10.9174 8.68098 12.1501L6.55606 14.118C5.2226 15.3529 3.13122 15.2813 1.88684 13.9589C0.6446 12.6389 0.71597 10.5711 2.04715 9.33828L4.17207 7.37044C4.37468 7.18281 4.38682 6.86646 4.19919 6.66385C4.01156 6.46124 3.69521 6.4491 3.4926 6.63673L1.36768 8.60458C-0.370621 10.2144 -0.464638 12.9194 1.15859 14.6443C2.77967 16.3669 5.49952 16.4594 7.23553 14.8517L9.36045 12.8838C11.0988 11.274 11.1928 8.56907 9.56954 6.84415C9.37741 6.63998 9.16951 6.45846 8.94933 6.29987Z" fill="white"/>
</svg>

<svg width="16" height="16" fill="none" xmlns="http://www.w3.org/2000/svg"><path fill-rule="evenodd" clip-rule="evenodd" d="M7.05 9.7a.5.5 0 1 0 .584-.811 3.25 3.25 0 0 1-.316-5.039l2.125-1.968a3.323 3.323 0 0 1 4.67.16 3.25 3.25 0 0 1-.161 4.62L11.827 8.63a.5.5 0 1 0 .68.733l2.124-1.968a4.25 4.25 0 0 0 .21-6.04 4.323 4.323 0 0 0-6.077-.207L6.639 3.116a4.25 4.25 0 0 0 .41 6.584Zm1.9-3.4a.5.5 0 0 0-.585.811c.169.122.328.261.476.418a3.25 3.25 0 0 1-.16 4.621l-2.125 1.968a3.323 3.323 0 0 1-4.67-.16 3.25 3.25 0 0 1 .161-4.62L4.172 7.37a.5.5 0 1 0-.68-.733L1.369 8.605a4.25 4.25 0 0 0-.21 6.04 4.323 4.323 0 0 0 6.078.207l2.124-1.968A4.25 4.25 0 0 0 8.95 6.3Z" fill="#fff"/></svg>
